; generated by PrusaSlicer 2.5.0+win64 on 2023-03-06 at 16:43:02 UTC


;
;
; 

; external perimeters extrusion width = 0.45mm
; perimeters extrusion width = 0.45mm
; infill extrusion width = 0.45mm
; solid infill extrusion width = 0.45mm
; top infill extrusion width = 0.40mm
; first layer extrusion width = 0.42mm

M73 P0 R31
M73 Q0 S31
M201 X1000 Y1000 Z200 E5000 ; sets maximum accelerations, mm/sec^2
M203 X200 Y200 Z12 E120 ; sets maximum feedrates, mm / sec
M204 P1250 R1250 T1250 ; sets acceleration (P, T) and retract acceleration (R), mm/sec^2
M205 X8.00 Y8.00 Z0.40 E4.50 ; sets the jerk limits, mm/sec
M205 S0 T0 ; sets the minimum extruding and travel feed rate, mm/sec
M107
;TYPE:Custom
M862.3 P "MK3S" ; printer model check
M862.1 P0.4 ; nozzle diameter check
M115 U3.11.0 ; tell printer latest fw version
G90 ; use absolute coordinates
M83 ; extruder relative mode
M104 S215 ; set extruder temp
M140 S60 ; set bed temp
M190 S60 ; wait for bed temp
M109 S215 ; wait for extruder temp
G28 W ; home all without mesh bed level
G80 ; mesh bed leveling

G1 Z0.2 F720
G1 Y-3 F1000 ; go outside print area
G92 E0
G1 X60 E9 F1000 ; intro line
G1 X100 E12.5 F1000 ; intro line

G92 E0
M221 S95

; Don't change E values below. Excessive value can damage the printer.
M907 E430 ; set extruder motor current
G21 ; set units to millimeters
G90 ; use absolute coordinates
M83 ; use relative distances for extrusion
M900 K0.05 ; Filament gcode LA 1.5
M900 K30 ; Filament gcode LA 1.0
M107
;LAYER_CHANGE
;Z:0.2
;HEIGHT:0.2
;BEFORE_LAYER_CHANGE
G92 E0.0
;0.2


G1 E-.8 F2100
M73 P0 R30
G1 Z.4 F720
;AFTER_LAYER_CHANGE
;0.2
G1 X100.015 Y72.193 F10800
G1 Z.2 F720
G1 E.8 F2100
M204 S800
;TYPE:Skirt/Brim
;WIDTH:0.42
G1 F1200
G1 X101.06 Y71.317 E.04278
G1 X102 Y71.123 E.03008
G1 X148 Y71.123 E1.4423
G1 X149.307 Y71.515 E.04278
G1 X150.183 Y72.56 E.04278
G1 X150.377 Y73.5 E.03008
G1 X150.377 Y136.5 E1.97532
G1 X149.985 Y137.807 E.04278
G1 X148.94 Y138.683 E.04278
G1 X148 Y138.877 E.03008
G1 X102 Y138.877 E1.4423
G1 X100.693 Y138.485 E.04278
M73 Q0 S30
G1 X99.817 Y137.44 E.04278
G1 X99.623 Y136.5 E.03008
G1 X99.623 Y73.5 E1.97532
G1 X99.997 Y72.25 E.0409
M204 S1000
; printing object door1.stl id:0 copy 0
;WIPE_START
M73 Q1 S30
G1 F8640
M73 P1 R30
G1 X101.06 Y71.317 E-.32671
G1 X102 Y71.123 E-.22155
G1 X102.917 Y71.123 E-.21174
;WIPE_END
G1 E-.04 F2100
G1 Z.6 F720
G1 X147.213 Y135.713 F10800
G1 Z.2 F720
G1 E.8 F2100
M204 S800
;TYPE:Perimeter
;WIDTH:0.419999
G1 F1200
G1 X102.787 Y135.713 E1.39294
G1 X102.787 Y74.287 E1.92596
G1 X147.213 Y74.287 E1.39294
G1 X147.213 Y135.653 E1.92408
M204 S1000
G1 X147.59 Y136.09 F10800
M204 S800
;TYPE:External perimeter
G1 F1200
G1 X102.41 Y136.09 E1.41658
G1 X102.41 Y73.91 E1.94961
G1 X147.59 Y73.91 E1.41658
G1 X147.59 Y136.03 E1.94773
M204 S1000
M73 P2 R30
M73 Q2 S30
G1 X147.21 Y135.966 F10800
;WIPE_START
G1 F8640
G1 X144.299 Y136.034 E-.76
;WIPE_END
G1 E-.04 F2100
G1 Z.6 F720
G1 X146.334 Y74.4 F10800
G1 Z.2 F720
G1 E.8 F2100
M204 S800
;TYPE:Solid infill
;WIDTH:0.421507
G1 F1200
G1 X146.93 Y74.996 E.02652
G1 X146.93 Y75.531 E.01685
G1 X145.969 Y74.57 E.0428
G1 X145.433 Y74.57 E.01685
G1 X146.93 Y76.067 E.06664
G1 X146.93 Y76.602 E.01685
G1 X144.898 Y74.57 E.09048
G1 X144.362 Y74.57 E.01685
G1 X146.93 Y77.138 E.11431
G1 X146.93 Y77.673 E.01685
G1 X143.827 Y74.57 E.13815
G1 X143.292 Y74.57 E.01685
G1 X146.93 Y78.208 E.16198
G1 X146.93 Y78.744 E.01685
G1 X142.756 Y74.57 E.18582
G1 X142.221 Y74.57 E.01685
G1 X146.93 Y79.279 E.20965
G1 X146.93 Y79.815 E.01685
G1 X141.685 Y74.57 E.23349
G1 X141.15 Y74.57 E.01685
G1 X146.93 Y80.35 E.25733
G1 X146.93 Y80.885 E.01685
G1 X140.615 Y74.57 E.28116
G1 X140.079 Y74.57 E.01685
G1 X146.93 Y81.421 E.305
G1 X146.93 Y81.956 E.01685
G1 X139.544 Y74.57 E.32883
G1 X139.008 Y74.57 E.01685
G1 X146.93 Y82.492 E.35267
G1 X146.93 Y83.027 E.01685
G1 X138.473 Y74.57 E.3765
G1 X137.938 Y74.57 E.01685
G1 X146.93 Y83.562 E.40034
G1 X146.93 Y84.098 E.01685
G1 X137.402 Y74.57 E.42417
G1 X136.867 Y74.57 E.01685
G1 X146.93 Y84.633 E.44801
G1 X146.93 Y85.169 E.01685
G1 X136.331 Y74.57 E.47185
G1 X135.796 Y74.57 E.01685
G1 X146.93 Y85.704 E.49568
G1 X146.93 Y86.239 E.01685
G1 X135.261 Y74.57 E.51952
G1 X134.725 Y74.57 E.01685
G1 X146.93 Y86.775 E.54335
G1 X146.93 Y87.31 E.01685
G1 X134.19 Y74.57 E.56719
G1 X133.654 Y74.57 E.01685
G1 X146.93 Y87.846 E.59102
G1 X146.93 Y88.381 E.01685
G1 X133.119 Y74.57 E.61486
G1 X132.584 Y74.57 E.01685
M73 Q3 S30
G1 X146.93 Y88.916 E.63869
M73 P3 R30
G1 X146.93 Y89.452 E.01685
G1 X132.048 Y74.57 E.66253
G1 X131.513 Y74.57 E.01685
G1 X146.93 Y89.987 E.68637
G1 X146.93 Y90.523 E.01685
G1 X130.977 Y74.57 E.7102
G1 X130.442 Y74.57 E.01685
G1 X146.93 Y91.058 E.73404
G1 X146.93 Y91.593 E.01685
G1 X129.907 Y74.57 E.75787
G1 X129.371 Y74.57 E.01685
G1 X146.93 Y92.129 E.78171
G1 X146.93 Y92.664 E.01685
G1 X128.836 Y74.57 E.80554
G1 X128.3 Y74.57 E.01685
M73 P3 R29
G1 X146.93 Y93.2 E.82938
G1 X146.93 Y93.735 E.01685
G1 X127.765 Y74.57 E.85321
G1 X127.23 Y74.57 E.01685
G1 X146.93 Y94.27 E.87705
G1 X146.93 Y94.806 E.01685
G1 X126.694 Y74.57 E.90089
G1 X126.159 Y74.57 E.01685
G1 X146.93 Y95.341 E.92472
G1 X146.93 Y95.877 E.01685
G1 X125.623 Y74.57 E.94856
G1 X125.088 Y74.57 E.01685
M73 Q3 S29
G1 X146.93 Y96.412 E.97239
G1 X146.93 Y96.947 E.01685
M73 P4 R29
M73 Q4 S29
G1 X124.553 Y74.57 E.99623
G1 X124.017 Y74.57 E.01685
G1 X146.93 Y97.483 E1.02006
G1 X146.93 Y98.018 E.01685
G1 X123.482 Y74.57 E1.0439
G1 X122.946 Y74.57 E.01685
G1 X146.93 Y98.554 E1.06773
G1 X146.93 Y99.089 E.01685
G1 X122.411 Y74.57 E1.09157
G1 X121.875 Y74.57 E.01685
G1 X146.93 Y99.625 E1.11541
G1 X146.93 Y100.16 E.01685
G1 X121.34 Y74.57 E1.13924
G1 X120.805 Y74.57 E.01685
G1 X146.93 Y100.695 E1.16308
G1 X146.93 Y101.231 E.01685
G1 X120.269 Y74.57 E1.18691
G1 X119.734 Y74.57 E.01685
G1 X146.93 Y101.766 E1.21075
G1 X146.93 Y102.302 E.01685
M73 P5 R29
M73 Q5 S29
G1 X119.198 Y74.57 E1.23458
G1 X118.663 Y74.57 E.01685
G1 X146.93 Y102.837 E1.25842
G1 X146.93 Y103.372 E.01685
G1 X118.128 Y74.57 E1.28225
G1 X117.592 Y74.57 E.01685
G1 X146.93 Y103.908 E1.30609
G1 X146.93 Y104.443 E.01685
G1 X117.057 Y74.57 E1.32993
G1 X116.521 Y74.57 E.01685
G1 X146.93 Y104.979 E1.35376
G1 X146.93 Y105.514 E.01685
G1 X115.986 Y74.57 E1.3776
G1 X115.451 Y74.57 E.01685
G1 X146.93 Y106.049 E1.40143
G1 X146.93 Y106.585 E.01685
G1 X114.915 Y74.57 E1.42527
G1 X114.38 Y74.57 E.01685
M73 P6 R29
M73 Q6 S29
G1 X146.93 Y107.12 E1.4491
G1 X146.93 Y107.656 E.01685
G1 X113.844 Y74.57 E1.47294
G1 X113.309 Y74.57 E.01685
G1 X146.93 Y108.191 E1.49677
G1 X146.93 Y108.726 E.01685
G1 X112.774 Y74.57 E1.52061
G1 X112.238 Y74.57 E.01685
G1 X146.93 Y109.262 E1.54445
G1 X146.93 Y109.797 E.01685
M73 P6 R28
G1 X111.703 Y74.57 E1.56828
G1 X111.167 Y74.57 E.01685
G1 X146.93 Y110.333 E1.59212
G1 X146.93 Y110.868 E.01685
G1 X110.632 Y74.57 E1.61595
G1 X110.097 Y74.57 E.01685
M73 P7 R28
M73 Q7 S29
G1 X146.93 Y111.403 E1.63979
G1 X146.93 Y111.939 E.01685
M73 Q7 S28
G1 X109.561 Y74.57 E1.66362
G1 X109.026 Y74.57 E.01685
G1 X146.93 Y112.474 E1.68746
G1 X146.93 Y113.01 E.01685
G1 X108.49 Y74.57 E1.71129
G1 X107.955 Y74.57 E.01685
G1 X146.93 Y113.545 E1.73513
G1 X146.93 Y114.08 E.01685
G1 X107.42 Y74.57 E1.75897
G1 X106.884 Y74.57 E.01685
M73 P8 R28
M73 Q8 S28
G1 X146.93 Y114.616 E1.7828
G1 X146.93 Y115.151 E.01685
G1 X106.349 Y74.57 E1.80664
G1 X105.813 Y74.57 E.01685
G1 X146.93 Y115.687 E1.83047
G1 X146.93 Y116.222 E.01685
G1 X105.278 Y74.57 E1.85431
G1 X104.743 Y74.57 E.01685
G1 X146.93 Y116.757 E1.87814
G1 X146.93 Y117.293 E.01685
G1 X104.207 Y74.57 E1.90198
G1 X103.672 Y74.57 E.01685
G1 X146.93 Y117.828 E1.92581
G1 X146.93 Y118.364 E.01685
M73 P9 R28
M73 Q9 S28
G1 X103.136 Y74.57 E1.94965
G1 X103.07 Y74.57 E.00209
G1 X103.07 Y75.039 E.01476
G1 X146.93 Y118.899 E1.95261
G1 X146.93 Y119.434 E.01685
G1 X103.07 Y75.574 E1.95261
G1 X103.07 Y76.11 E.01685
G1 X146.93 Y119.97 E1.95261
G1 X146.93 Y120.505 E.01685
G1 X103.07 Y76.645 E1.95261
G1 X103.07 Y77.18 E.01685
M73 P9 R27
G1 X146.93 Y121.041 E1.95261
G1 X146.93 Y121.576 E.01685
M73 P10 R27
M73 Q10 S28
G1 X103.07 Y77.716 E1.95261
G1 X103.07 Y78.251 E.01685
G1 X146.93 Y122.111 E1.95261
G1 X146.93 Y122.647 E.01685
M73 Q10 S27
G1 X103.07 Y78.787 E1.95261
G1 X103.07 Y79.322 E.01685
G1 X146.93 Y123.182 E1.95261
G1 X146.93 Y123.718 E.01685
G1 X103.07 Y79.857 E1.95261
G1 X103.07 Y80.393 E.01685
G1 X146.93 Y124.253 E1.95261
G1 X146.93 Y124.788 E.01685
M73 P11 R27
M73 Q11 S27
G1 X103.07 Y80.928 E1.95261
G1 X103.07 Y81.464 E.01685
G1 X146.93 Y125.324 E1.95261
G1 X146.93 Y125.859 E.01685
G1 X103.07 Y81.999 E1.95261
G1 X103.07 Y82.534 E.01685
G1 X146.93 Y126.395 E1.95261
G1 X146.93 Y126.93 E.01685
G1 X103.07 Y83.07 E1.95261
G1 X103.07 Y83.605 E.01685
G1 X146.93 Y127.465 E1.95261
G1 X146.93 Y128.001 E.01685
M73 P12 R27
M73 Q12 S27
G1 X103.07 Y84.141 E1.95261
G1 X103.07 Y84.676 E.01685
G1 X146.93 Y128.536 E1.95261
G1 X146.93 Y129.072 E.01685
G1 X103.07 Y85.211 E1.95261
G1 X103.07 Y85.747 E.01685
G1 X146.93 Y129.607 E1.95261
G1 X146.93 Y130.142 E.01685
G1 X103.07 Y86.282 E1.95261
G1 X103.07 Y86.818 E.01685
M73 P13 R27
G1 X146.93 Y130.678 E1.95261
G1 X146.93 Y131.213 E.01685
M73 P13 R26
M73 Q13 S27
G1 X103.07 Y87.353 E1.95261
G1 X103.07 Y87.888 E.01685
G1 X146.93 Y131.749 E1.95261
G1 X146.93 Y132.284 E.01685
G1 X103.07 Y88.424 E1.95261
G1 X103.07 Y88.959 E.01685
M73 Q13 S26
G1 X146.93 Y132.819 E1.95261
G1 X146.93 Y133.355 E.01685
G1 X103.07 Y89.495 E1.95261
G1 X103.07 Y90.03 E.01685
M73 P14 R26
G1 X146.93 Y133.89 E1.95261
G1 X146.93 Y134.426 E.01685
M73 Q14 S26
G1 X103.07 Y90.565 E1.95261
G1 X103.07 Y91.101 E.01685
G1 X146.93 Y134.961 E1.95261
G1 X146.93 Y135.43 E.01476
G1 X146.864 Y135.43 E.00209
G1 X103.07 Y91.636 E1.94966
G1 X103.07 Y92.172 E.01685
G1 X146.328 Y135.43 E1.92582
G1 X145.793 Y135.43 E.01685
G1 X103.07 Y92.707 E1.90199
G1 X103.07 Y93.242 E.01685
M73 P15 R26
G1 X145.258 Y135.43 E1.87815
G1 X144.722 Y135.43 E.01685
M73 Q15 S26
G1 X103.07 Y93.778 E1.85431
G1 X103.07 Y94.313 E.01685
G1 X144.187 Y135.43 E1.83048
G1 X143.651 Y135.43 E.01685
G1 X103.07 Y94.849 E1.80664
G1 X103.07 Y95.384 E.01685
G1 X143.116 Y135.43 E1.78281
G1 X142.581 Y135.43 E.01685
G1 X103.07 Y95.919 E1.75897
G1 X103.07 Y96.455 E.01685
G1 X142.045 Y135.43 E1.73514
G1 X141.51 Y135.43 E.01685
M73 P16 R26
M73 Q16 S26
G1 X103.07 Y96.99 E1.7113
G1 X103.07 Y97.526 E.01685
G1 X140.974 Y135.43 E1.68747
G1 X140.439 Y135.43 E.01685
M73 P16 R25
G1 X103.07 Y98.061 E1.66363
G1 X103.07 Y98.596 E.01685
G1 X139.904 Y135.43 E1.63979
G1 X139.368 Y135.43 E.01685
G1 X103.07 Y99.132 E1.61596
G1 X103.07 Y99.667 E.01685
M73 Q16 S25
G1 X138.833 Y135.43 E1.59212
G1 X138.297 Y135.43 E.01685
G1 X103.07 Y100.203 E1.56829
G1 X103.07 Y100.738 E.01685
M73 P17 R25
M73 Q17 S25
G1 X137.762 Y135.43 E1.54445
G1 X137.226 Y135.43 E.01685
G1 X103.07 Y101.274 E1.52062
G1 X103.07 Y101.809 E.01685
G1 X136.691 Y135.43 E1.49678
G1 X136.156 Y135.43 E.01685
G1 X103.07 Y102.344 E1.47294
G1 X103.07 Y102.88 E.01685
G1 X135.62 Y135.43 E1.44911
G1 X135.085 Y135.43 E.01685
G1 X103.07 Y103.415 E1.42527
G1 X103.07 Y103.951 E.01685
G1 X134.549 Y135.43 E1.40144
G1 X134.014 Y135.43 E.01685
G1 X103.07 Y104.486 E1.3776
G1 X103.07 Y105.021 E.01685
M73 P18 R25
M73 Q18 S25
G1 X133.479 Y135.43 E1.35377
G1 X132.943 Y135.43 E.01685
G1 X103.07 Y105.557 E1.32993
G1 X103.07 Y106.092 E.01685
G1 X132.408 Y135.43 E1.3061
G1 X131.872 Y135.43 E.01685
G1 X103.07 Y106.628 E1.28226
G1 X103.07 Y107.163 E.01685
G1 X131.337 Y135.43 E1.25842
G1 X130.802 Y135.43 E.01685
G1 X103.07 Y107.698 E1.23459
G1 X103.07 Y108.234 E.01685
G1 X130.266 Y135.43 E1.21075
G1 X129.731 Y135.43 E.01685
G1 X103.07 Y108.769 E1.18692
G1 X103.07 Y109.305 E.01685
G1 X129.195 Y135.43 E1.16308
M73 P19 R25
G1 X128.66 Y135.43 E.01685
M73 Q19 S25
G1 X103.07 Y109.84 E1.13925
G1 X103.07 Y110.375 E.01685
G1 X128.125 Y135.43 E1.11541
G1 X127.589 Y135.43 E.01685
G1 X103.07 Y110.911 E1.09158
G1 X103.07 Y111.446 E.01685
G1 X127.054 Y135.43 E1.06774
G1 X126.518 Y135.43 E.01685
G1 X103.07 Y111.982 E1.0439
G1 X103.07 Y112.517 E.01685
M73 P19 R24
G1 X125.983 Y135.43 E1.02007
G1 X125.448 Y135.43 E.01685
G1 X103.07 Y113.052 E.99623
G1 X103.07 Y113.588 E.01685
G1 X124.912 Y135.43 E.9724
G1 X124.377 Y135.43 E.01685
G1 X103.07 Y114.123 E.94856
G1 X103.07 Y114.659 E.01685
G1 X123.841 Y135.43 E.92473
G1 X123.306 Y135.43 E.01685
M73 P20 R24
G1 X103.07 Y115.194 E.90089
G1 X103.07 Y115.729 E.01685
M73 Q20 S24
G1 X122.771 Y135.43 E.87706
G1 X122.235 Y135.43 E.01685
G1 X103.07 Y116.265 E.85322
G1 X103.07 Y116.8 E.01685
G1 X121.7 Y135.43 E.82938
G1 X121.164 Y135.43 E.01685
G1 X103.07 Y117.336 E.80555
G1 X103.07 Y117.871 E.01685
G1 X120.629 Y135.43 E.78171
G1 X120.094 Y135.43 E.01685
G1 X103.07 Y118.406 E.75788
G1 X103.07 Y118.942 E.01685
G1 X119.558 Y135.43 E.73404
G1 X119.023 Y135.43 E.01685
G1 X103.07 Y119.477 E.71021
G1 X103.07 Y120.013 E.01685
G1 X118.487 Y135.43 E.68637
G1 X117.952 Y135.43 E.01685
G1 X103.07 Y120.548 E.66254
G1 X103.07 Y121.083 E.01685
G1 X117.417 Y135.43 E.6387
G1 X116.881 Y135.43 E.01685
G1 X103.07 Y121.619 E.61486
G1 X103.07 Y122.154 E.01685
G1 X116.346 Y135.43 E.59103
G1 X115.81 Y135.43 E.01685
G1 X103.07 Y122.69 E.56719
G1 X103.07 Y123.225 E.01685
G1 X115.275 Y135.43 E.54336
G1 X114.74 Y135.43 E.01685
M73 P21 R24
G1 X103.07 Y123.76 E.51952
G1 X103.07 Y124.296 E.01685
M73 Q21 S24
G1 X114.204 Y135.43 E.49569
G1 X113.669 Y135.43 E.01685
G1 X103.07 Y124.831 E.47185
G1 X103.07 Y125.367 E.01685
G1 X113.133 Y135.43 E.44802
G1 X112.598 Y135.43 E.01685
G1 X103.07 Y125.902 E.42418
G1 X103.07 Y126.437 E.01685
G1 X112.063 Y135.43 E.40034
G1 X111.527 Y135.43 E.01685
G1 X103.07 Y126.973 E.37651
G1 X103.07 Y127.508 E.01685
G1 X110.992 Y135.43 E.35267
G1 X110.456 Y135.43 E.01685
G1 X103.07 Y128.044 E.32884
G1 X103.07 Y128.579 E.01685
G1 X109.921 Y135.43 E.305
G1 X109.386 Y135.43 E.01685
G1 X103.07 Y129.114 E.28117
G1 X103.07 Y129.65 E.01685
G1 X108.85 Y135.43 E.25733
G1 X108.315 Y135.43 E.01685
G1 X103.07 Y130.185 E.2335
G1 X103.07 Y130.721 E.01685
G1 X107.779 Y135.43 E.20966
G1 X107.244 Y135.43 E.01685
G1 X103.07 Y131.256 E.18582
G1 X103.07 Y131.791 E.01685
G1 X106.709 Y135.43 E.16199
G1 X106.173 Y135.43 E.01685
G1 X103.07 Y132.327 E.13815
G1 X103.07 Y132.862 E.01685
G1 X105.638 Y135.43 E.11432
G1 X105.102 Y135.43 E.01685
G1 X103.07 Y133.398 E.09048
G1 X103.07 Y133.933 E.01685
G1 X104.567 Y135.43 E.06665
G1 X104.032 Y135.43 E.01685
G1 X103.07 Y134.468 E.04281
G1 X103.07 Y135.004 E.01685
G1 X103.666 Y135.6 E.02653
M204 S1000
; stop printing object door1.stl id:0 copy 0
M106 S84.15
;LAYER_CHANGE
;Z:0.4
;HEIGHT:0.2
;BEFORE_LAYER_CHANGE
G92 E0.0
;0.4


;WIPE_START
G1 F8640
G1 X103.07 Y135.004 E-.1946
G1 X103.07 Y134.468 E-.12363
G1 X104.032 Y135.43 E-.31402
G1 X104.567 Y135.43 E-.12363
G1 X104.554 Y135.417 E-.00413
;WIPE_END
G1 E-.04 F2100
G1 Z.6 F720
;AFTER_LAYER_CHANGE
;0.4
G1 X104.554 Y138.877 F10800
G1 Z.4 F720
G1 E.8 F2100
;TYPE:Skirt/Brim
;WIDTH:0.42
G1 F3000
G1 X102 Y138.877 E.08009
G1 X100.693 Y138.485 E.04278
G1 X99.817 Y137.44 E.04278
G1 X99.623 Y136.5 E.03008
G1 X99.623 Y73.5 E1.97532
G1 X100.015 Y72.193 E.04278
G1 X101.06 Y71.317 E.04278
G1 X102 Y71.123 E.03008
G1 X148 Y71.123 E1.4423
G1 X149.307 Y71.515 E.04278
G1 X150.183 Y72.56 E.04278
G1 X150.377 Y73.5 E.03008
G1 X150.377 Y136.5 E1.97532
G1 X149.985 Y137.807 E.04278
G1 X148.94 Y138.683 E.04278
G1 X148 Y138.877 E.03008
G1 X104.614 Y138.877 E1.36033
; printing object door1.stl id:0 copy 0
;WIPE_START
G1 F8640
G1 X102 Y138.877 E-.60364
G1 X101.351 Y138.683 E-.15636
;WIPE_END
G1 E-.04 F2100
G1 Z.8 F720
G1 X147.368 Y135.868 F10800
G1 Z.4 F720
G1 E.8 F2100
M204 S800
;TYPE:Perimeter
;WIDTH:0.449999
G1 F2700
G1 X102.632 Y135.868 E1.51425
G1 X102.632 Y74.132 E2.08968
G1 X147.368 Y74.132 E1.51425
M73 P22 R24
G1 X147.368 Y135.808 E2.08765
M204 S1000
M73 Q22 S24
G1 X147.775 Y136.275 F10800
M204 S800
;TYPE:External perimeter
G1 F1500
G1 X102.225 Y136.275 E1.54181
G1 X102.225 Y73.725 E2.11724
G1 X147.775 Y73.725 E1.54181
G1 X147.775 Y136.215 E2.11521
M204 S1000
G1 X147.395 Y136.152 F10800
;WIPE_START
G1 F8640
