; generated by PrusaSlicer 2.5.0+win64 on 2023-04-21 at 17:42:14 UTC


;
;
; 

; external perimeters extrusion width = 0.45mm
; perimeters extrusion width = 0.45mm
; infill extrusion width = 0.45mm
; solid infill extrusion width = 0.45mm
; top infill extrusion width = 0.40mm
; first layer extrusion width = 0.42mm

M73 P0 R119
M73 Q0 S121
M201 X1000 Y1000 Z200 E5000 ; sets maximum accelerations, mm/sec^2
M203 X200 Y200 Z12 E120 ; sets maximum feedrates, mm / sec
M204 P1250 R1250 T1250 ; sets acceleration (P, T) and retract acceleration (R), mm/sec^2
M205 X8.00 Y8.00 Z0.40 E4.50 ; sets the jerk limits, mm/sec
M205 S0 T0 ; sets the minimum extruding and travel feed rate, mm/sec
M107
;TYPE:Custom
M862.3 P "MK3S" ; printer model check
M862.1 P0.4 ; nozzle diameter check
M115 U3.11.0 ; tell printer latest fw version
G90 ; use absolute coordinates
M83 ; extruder relative mode
M104 S215 ; set extruder temp
M140 S60 ; set bed temp
M190 S60 ; wait for bed temp
M109 S215 ; wait for extruder temp
G28 W ; home all without mesh bed level
G80 ; mesh bed leveling

G1 Z0.2 F720
G1 Y-3 F1000 ; go outside print area
G92 E0
G1 X60 E9 F1000 ; intro line
G1 X100 E12.5 F1000 ; intro line

G92 E0
M221 S95

; Don't change E values below. Excessive value can damage the printer.
M907 E430 ; set extruder motor current
G21 ; set units to millimeters
G90 ; use absolute coordinates
M83 ; use relative distances for extrusion
M900 K0.05 ; Filament gcode LA 1.5
M900 K30 ; Filament gcode LA 1.0
M107
;LAYER_CHANGE
;Z:0.2
;HEIGHT:0.2
;BEFORE_LAYER_CHANGE
G92 E0.0
;0.2


G1 E-.8 F2100
G1 Z.4 F720
;AFTER_LAYER_CHANGE
;0.2
G1 X80.879 Y85.193 F10800
G1 Z.2 F720
G1 E.8 F2100
M204 S800
;TYPE:Skirt/Brim
;WIDTH:0.42
G1 F1200
G1 X81.925 Y84.317 E.04278
G1 X82.864 Y84.123 E.03008
G1 X167.136 Y84.123 E2.64227
G1 X168.443 Y84.515 E.04278
G1 X169.319 Y85.56 E.04278
G1 X169.513 Y86.5 E.03008
G1 X169.504 Y118.707 E1.00983
G1 X169.303 Y119.846 E.03625
M73 Q0 S120
G1 X169.004 Y120.573 E.02464
G1 X168.583 Y121.236 E.02464
G1 X167.736 Y122.083 E.03756
G1 X166.735 Y122.661 E.03625
G1 X165.986 Y122.899 E.02464
G1 X165 Y123.013 E.03112
G1 X85 Y123.013 E2.50834
G1 X83.785 Y122.843 E.03847
G1 X83.121 Y122.599 E.02219
G1 X82.503 Y122.255 E.02219
G1 X81.946 Y121.818 E.02218
G1 X81.465 Y121.299 E.02219
G1 X81.07 Y120.712 E.02218
G1 X80.773 Y120.07 E.02219
G1 X80.579 Y119.389 E.02219
G1 X80.487 Y118.5 E.02802
G1 X80.487 Y86.5 E1.00334
G1 X80.862 Y85.25 E.0409
M204 S1000
; printing object lcd_housing.STL id:0 copy 0
;WIPE_START
M73 P0 R118
G1 F8640
G1 X81.925 Y84.317 E-.32671
G1 X82.864 Y84.123 E-.22155
G1 X83.781 Y84.123 E-.21174
;WIPE_END
G1 E-.04 F2100
G1 Z.6 F720
G1 X154.961 Y89.735 F10800
G1 Z.2 F720
G1 E.8 F2100
M204 S800
;TYPE:Perimeter
;WIDTH:0.419999
G1 F1200
G1 X154.782 Y89.78 E.00581
G1 X154.595 Y89.939 E.00769
G1 X154.505 Y90.12 E.00634
G1 X154.482 Y90.279 E.00501
G1 X154.489 Y96.808 E.20473
G1 X154.583 Y97.043 E.00794
G1 X154.792 Y97.226 E.0087
G1 X155.048 Y97.287 E.00825
G1 X157.491 Y97.287 E.0766
G1 X157.615 Y97.273 E.00392
G1 X157.83 Y97.174 E.00743
G1 X158.013 Y96.939 E.00933
G1 X158.057 Y96.721 E.00696
G1 X158.057 Y87.287 E.29581
G1 X165.171 Y87.287 E.22307
G1 X165.171 Y118.379 E.97487
G1 X165.112 Y118.614 E.00758
G1 X164.941 Y118.671 E.00566
G1 X85.072 Y118.671 E2.50422
G1 X84.887 Y118.614 E.00609
G1 X84.829 Y118.447 E.00555
G1 X84.829 Y87.287 E.97699
G1 X155.482 Y87.287 E2.21528
G1 X155.482 Y89.713 E.07606
G1 X155.02 Y89.72 E.01451
M204 S1000
G1 X155.048 Y90.09 F10800
M204 S800
;TYPE:External perimeter
G1 F1200
G1 X154.897 Y90.165 E.00529
G1 X154.859 Y90.279 E.00374
G1 X154.859 Y96.721 E.20201
G1 X154.906 Y96.846 E.00417
G1 X155.048 Y96.91 E.00488
G1 X157.491 Y96.91 E.0766
G1 X157.627 Y96.851 E.00466
G1 X157.679 Y96.721 E.00439
G1 X157.679 Y86.91 E.30763
G1 X165.548 Y86.91 E.24671
G1 X165.548 Y118.379 E.98669
G1 X165.465 Y118.779 E.0128
G1 X165.263 Y118.967 E.00865
G1 X164.973 Y119.048 E.00944
G1 X85.072 Y119.048 E2.50524
G1 X84.977 Y119.041 E.003
G1 X84.68 Y118.941 E.00982
G1 X84.521 Y118.745 E.00791
G1 X84.452 Y118.476 E.0087
G1 X84.452 Y86.91 E.98972
G1 X155.859 Y86.91 E2.23893
G1 X155.859 Y90.09 E.09971
G1 X155.108 Y90.09 E.02356
M204 S1000
G1 X154.887 Y90.041 F10800
;WIPE_START
G1 F8640
G1 X154.897 Y90.165 E-.05171
G1 X154.859 Y90.279 E-.02753
G1 X154.859 Y93.227 E-.68077
;WIPE_END
G1 E-.04 F2100
G1 Z.6 F720
G1 X164.293 Y87.4 F10800
G1 Z.2 F720
G1 E.8 F2100
M204 S800
;TYPE:Solid infill
;WIDTH:0.421408
G1 F1200
G1 X164.888 Y87.996 E.02651
G1 X164.888 Y88.531 E.01685
G1 X163.927 Y87.57 E.04278
G1 X163.392 Y87.57 E.01685
G1 X164.888 Y89.066 E.0666
G1 X164.888 Y89.602 E.01685
G1 X162.856 Y87.57 E.09042
G1 X162.321 Y87.57 E.01685
G1 X164.888 Y90.137 E.11425
G1 X164.888 Y90.672 E.01685
G1 X161.786 Y87.57 E.13807
G1 X161.251 Y87.57 E.01685
G1 X164.888 Y91.207 E.16189
G1 X164.888 Y91.743 E.01685
G1 X160.715 Y87.57 E.18572
G1 X160.18 Y87.57 E.01685
G1 X164.888 Y92.278 E.20954
G1 X164.888 Y92.813 E.01685
G1 X159.645 Y87.57 E.23336
G1 X159.11 Y87.57 E.01685
G1 X164.888 Y93.348 E.25719
G1 X164.888 Y93.884 E.01685
G1 X158.574 Y87.57 E.28101
G1 X158.339 Y87.57 E.00739
G1 X158.339 Y87.87 E.00945
G1 X164.888 Y94.419 E.29147
G1 X164.888 Y94.954 E.01685
G1 X158.339 Y88.405 E.29147
G1 X158.339 Y88.941 E.01685
G1 X164.888 Y95.489 E.29147
G1 X164.888 Y96.025 E.01685
G1 X158.339 Y89.476 E.29147
G1 X158.339 Y90.011 E.01685
G1 X164.888 Y96.56 E.29147
G1 X164.888 Y97.095 E.01685
G1 X158.339 Y90.546 E.29147
G1 X158.339 Y91.082 E.01685
G1 X164.888 Y97.63 E.29147
G1 X164.888 Y98.166 E.01685
G1 X158.339 Y91.617 E.29147
G1 X158.339 Y92.152 E.01685
G1 X164.888 Y98.701 E.29147
G1 X164.888 Y99.236 E.01685
G1 X158.339 Y92.688 E.29147
G1 X158.339 Y93.223 E.01685
G1 X164.888 Y99.772 E.29147
G1 X164.888 Y100.307 E.01685
G1 X158.339 Y93.758 E.29147
G1 X158.339 Y94.293 E.01685
G1 X164.888 Y100.842 E.29147
G1 X164.888 Y101.377 E.01685
G1 X158.339 Y94.829 E.29147
G1 X158.339 Y95.364 E.01685
G1 X164.888 Y101.913 E.29147
G1 X164.888 Y102.448 E.01685
G1 X158.339 Y95.899 E.29147
G1 X158.339 Y96.434 E.01685
G1 X164.888 Y102.983 E.29147
G1 X164.888 Y103.518 E.01685
G1 X158.308 Y96.938 E.29286
G1 X158.275 Y97.048 E.0036
G1 X158.2 Y97.189 E.00502
G1 X158.121 Y97.287 E.00396
G1 X164.888 Y104.054 E.30117
G1 X164.888 Y104.589 E.01685
G1 X157.803 Y97.503 E.31535
G1 X157.678 Y97.55 E.00417
G1 X157.333 Y97.569 E.01088
G1 X164.888 Y105.124 E.33625
G1 X164.888 Y105.659 E.01685
G1 X156.795 Y97.567 E.36018
G1 X156.258 Y97.564 E.01692
G1 X164.888 Y106.195 E.38411
G1 X164.888 Y106.73 E.01685
G1 X155.55 Y97.392 E.41562
M204 S1000
;WIPE_START
G1 F8640
G1 X157.877 Y99.719 E-.76
;WIPE_END
G1 E-.04 F2100
G1 Z.6 F720
G1 X155.369 Y88.112 F10800
G1 Z.2 F720
G1 E.8 F2100
M204 S800
G1 F1200
G1 X154.827 Y87.57 E.02411
G1 X154.292 Y87.57 E.01685
G1 X155.2 Y88.477 E.04038
G1 X155.2 Y89.013 E.01685
G1 X153.757 Y87.57 E.06421
G1 X153.222 Y87.57 E.01685
G1 X155.082 Y89.43 E.08279
G1 X154.646 Y89.529 E.01407
G1 X152.686 Y87.57 E.08721
G1 X152.151 Y87.57 E.01685
G1 X154.362 Y89.781 E.0984
G1 X154.233 Y90.039 E.00909
G1 X154.214 Y90.168 E.00411
G1 X151.616 Y87.57 E.11565
G1 X151.081 Y87.57 E.01685
G1 X154.2 Y90.689 E.13882
G1 X154.2 Y91.224 E.01685
G1 X150.545 Y87.57 E.16264
G1 X150.01 Y87.57 E.01685
G1 X154.2 Y91.759 E.18646
G1 X154.2 Y92.295 E.01685
G1 X149.475 Y87.57 E.21029
G1 X148.94 Y87.57 E.01685
G1 X154.2 Y92.83 E.23411
G1 X154.2 Y93.365 E.01685
G1 X148.404 Y87.57 E.25793
G1 X147.869 Y87.57 E.01685
G1 X154.2 Y93.9 E.28175
G1 X154.2 Y94.436 E.01685
G1 X147.334 Y87.57 E.30558
G1 X146.799 Y87.57 E.01685
G1 X154.2 Y94.971 E.3294
G1 X154.2 Y95.506 E.01685
G1 X146.263 Y87.57 E.35322
G1 X145.728 Y87.57 E.01685
G1 X154.369 Y96.211 E.3846
M204 S1000
;WIPE_START
G1 F8640
G1 X152.042 Y93.884 E-.76
;WIPE_END
G1 E-.04 F2100
G1 Z.6 F720
G1 X145.023 Y87.4 F10800
G1 Z.2 F720
G1 E.8 F2100
M204 S800
G1 F1200
G1 X154.2 Y96.577 E.40842
G1 X154.2 Y96.728 E.00477
G1 X154.233 Y96.959 E.00734
G1 X154.324 Y97.166 E.00713
G1 X154.482 Y97.354 E.00772
G1 X154.664 Y97.479 E.00697
G1 X154.902 Y97.558 E.00789
G1 X155.183 Y97.56 E.00882
G1 X164.888 Y107.265 E.43197
G1 X164.888 Y107.8 E.01685
G1 X144.657 Y87.57 E.90041
G1 X144.122 Y87.57 E.01685
M73 P1 R118
M73 Q0 S119
G1 X164.888 Y108.336 E.92423
G1 X164.888 Y108.871 E.01685
M73 Q1 S119
G1 X143.587 Y87.57 E.94806
G1 X143.052 Y87.57 E.01685
G1 X164.888 Y109.406 E.97188
G1 X164.888 Y109.942 E.01685
G1 X142.516 Y87.57 E.9957
G1 X141.981 Y87.57 E.01685
G1 X164.888 Y110.477 E1.01953
G1 X164.888 Y111.012 E.01685
M73 P1 R117
G1 X141.446 Y87.57 E1.04335
G1 X140.911 Y87.57 E.01685
G1 X164.888 Y111.547 E1.06717
G1 X164.888 Y112.083 E.01685
G1 X140.375 Y87.57 E1.09099
G1 X139.84 Y87.57 E.01685
G1 X164.888 Y112.618 E1.11482
G1 X164.888 Y113.153 E.01685
G1 X139.305 Y87.57 E1.13864
G1 X138.77 Y87.57 E.01685
G1 X164.888 Y113.688 E1.16246
G1 X164.888 Y114.224 E.01685
G1 X138.234 Y87.57 E1.18629
G1 X137.699 Y87.57 E.01685
G1 X164.888 Y114.759 E1.21011
G1 X164.888 Y115.294 E.01685
G1 X137.164 Y87.57 E1.23393
G1 X136.629 Y87.57 E.01685
G1 X164.888 Y115.829 E1.25776
G1 X164.888 Y116.365 E.01685
G1 X136.093 Y87.57 E1.28158
G1 X135.558 Y87.57 E.01685
G1 X164.888 Y116.9 E1.3054
G1 X164.888 Y117.435 E.01685
G1 X135.023 Y87.57 E1.32923
G1 X134.487 Y87.57 E.01685
G1 X164.888 Y117.97 E1.35305
G1 X164.888 Y118.382 E.01295
G1 X164.764 Y118.382 E.0039
G1 X133.952 Y87.57 E1.37136
G1 X133.417 Y87.57 E.01685
G1 X164.229 Y118.382 E1.37136
G1 X163.694 Y118.382 E.01685
G1 X132.882 Y87.57 E1.37136
G1 X132.346 Y87.57 E.01685
G1 X163.158 Y118.382 E1.37136
G1 X162.623 Y118.382 E.01685
G1 X131.811 Y87.57 E1.37136
G1 X131.276 Y87.57 E.01685
G1 X162.088 Y118.382 E1.37136
G1 X161.553 Y118.382 E.01685
G1 X130.741 Y87.57 E1.37136
G1 X130.205 Y87.57 E.01685
G1 X161.017 Y118.382 E1.37136
G1 X160.482 Y118.382 E.01685
G1 X129.67 Y87.57 E1.37136
G1 X129.135 Y87.57 E.01685
G1 X159.947 Y118.382 E1.37136
G1 X159.412 Y118.382 E.01685
G1 X128.6 Y87.57 E1.37136
G1 X128.064 Y87.57 E.01685
G1 X158.876 Y118.382 E1.37136
G1 X158.341 Y118.382 E.01685
M73 Q1 S118
G1 X127.529 Y87.57 E1.37136
G1 X126.994 Y87.57 E.01685
G1 X157.806 Y118.382 E1.37136
G1 X157.27 Y118.382 E.01685
G1 X126.459 Y87.57 E1.37136
G1 X125.923 Y87.57 E.01685
M73 P1 R116
G1 X156.735 Y118.382 E1.37136
G1 X156.2 Y118.382 E.01685
G1 X125.388 Y87.57 E1.37136
G1 X124.853 Y87.57 E.01685
M73 P2 R116
G1 X155.665 Y118.382 E1.37136
G1 X155.129 Y118.382 E.01685
M73 Q2 S118
G1 X124.317 Y87.57 E1.37136
G1 X123.782 Y87.57 E.01685
G1 X154.594 Y118.382 E1.37136
G1 X154.059 Y118.382 E.01685
G1 X123.247 Y87.57 E1.37135
G1 X122.712 Y87.57 E.01685
G1 X153.524 Y118.382 E1.37135
G1 X152.988 Y118.382 E.01685
G1 X122.176 Y87.57 E1.37135
G1 X121.641 Y87.57 E.01685
G1 X152.453 Y118.382 E1.37135
G1 X151.918 Y118.382 E.01685
G1 X121.106 Y87.57 E1.37135
G1 X120.571 Y87.57 E.01685
G1 X151.383 Y118.382 E1.37135
G1 X150.847 Y118.382 E.01685
G1 X120.035 Y87.57 E1.37135
G1 X119.5 Y87.57 E.01685
G1 X150.312 Y118.382 E1.37135
G1 X149.777 Y118.382 E.01685
G1 X118.965 Y87.57 E1.37135
G1 X118.43 Y87.57 E.01685
G1 X149.241 Y118.382 E1.37135
G1 X148.706 Y118.382 E.01685
G1 X117.894 Y87.57 E1.37135
G1 X117.359 Y87.57 E.01685
G1 X148.171 Y118.382 E1.37135
G1 X147.636 Y118.382 E.01685
G1 X116.824 Y87.57 E1.37135
G1 X116.289 Y87.57 E.01685
G1 X147.1 Y118.382 E1.37135
G1 X146.565 Y118.382 E.01685
G1 X115.753 Y87.57 E1.37135
G1 X115.218 Y87.57 E.01685
G1 X146.03 Y118.382 E1.37135
G1 X145.495 Y118.382 E.01685
G1 X114.683 Y87.57 E1.37135
G1 X114.147 Y87.57 E.01685
G1 X144.959 Y118.382 E1.37135
G1 X144.424 Y118.382 E.01685
G1 X113.612 Y87.57 E1.37135
G1 X113.077 Y87.57 E.01685
M73 Q2 S117
G1 X143.889 Y118.382 E1.37135
G1 X143.354 Y118.382 E.01685
G1 X112.542 Y87.57 E1.37135
G1 X112.006 Y87.57 E.01685
G1 X142.818 Y118.382 E1.37135
G1 X142.283 Y118.382 E.01685
M73 P2 R115
G1 X111.471 Y87.57 E1.37135
G1 X110.936 Y87.57 E.01685
G1 X141.748 Y118.382 E1.37135
G1 X141.212 Y118.382 E.01685
G1 X110.401 Y87.57 E1.37135
G1 X109.865 Y87.57 E.01685
G1 X140.677 Y118.382 E1.37135
G1 X140.142 Y118.382 E.01685
G1 X109.33 Y87.57 E1.37135
G1 X108.795 Y87.57 E.01685
G1 X139.607 Y118.382 E1.37135
G1 X139.071 Y118.382 E.01685
G1 X108.26 Y87.57 E1.37135
G1 X107.724 Y87.57 E.01685
M73 P3 R115
G1 X138.536 Y118.382 E1.37135
G1 X138.001 Y118.382 E.01685
M73 Q3 S117
G1 X107.189 Y87.57 E1.37135
G1 X106.654 Y87.57 E.01685
G1 X137.466 Y118.382 E1.37135
G1 X136.93 Y118.382 E.01685
G1 X106.119 Y87.57 E1.37135
G1 X105.583 Y87.57 E.01685
G1 X136.395 Y118.382 E1.37135
G1 X135.86 Y118.382 E.01685
G1 X105.048 Y87.57 E1.37135
G1 X104.513 Y87.57 E.01685
G1 X135.325 Y118.382 E1.37135
G1 X134.789 Y118.382 E.01685
G1 X103.977 Y87.57 E1.37135
G1 X103.442 Y87.57 E.01685
G1 X134.254 Y118.382 E1.37135
G1 X133.719 Y118.382 E.01685
G1 X102.907 Y87.57 E1.37135
G1 X102.372 Y87.57 E.01685
G1 X133.183 Y118.382 E1.37135
G1 X132.648 Y118.382 E.01685
G1 X101.836 Y87.57 E1.37135
G1 X101.301 Y87.57 E.01685
G1 X132.113 Y118.382 E1.37135
G1 X131.578 Y118.382 E.01685
G1 X100.766 Y87.57 E1.37135
G1 X100.231 Y87.57 E.01685
G1 X131.042 Y118.382 E1.37135
G1 X130.507 Y118.382 E.01685
G1 X99.695 Y87.57 E1.37135
G1 X99.16 Y87.57 E.01685
G1 X129.972 Y118.382 E1.37135
G1 X129.437 Y118.382 E.01685
M73 Q3 S116
G1 X98.625 Y87.57 E1.37135
G1 X98.09 Y87.57 E.01685
G1 X128.901 Y118.382 E1.37135
G1 X128.366 Y118.382 E.01685
G1 X97.554 Y87.57 E1.37135
G1 X97.019 Y87.57 E.01685
M73 P3 R114
G1 X127.831 Y118.382 E1.37135
G1 X127.296 Y118.382 E.01685
G1 X96.484 Y87.57 E1.37135
G1 X95.949 Y87.57 E.01685
G1 X126.76 Y118.382 E1.37135
G1 X126.225 Y118.382 E.01685
G1 X95.413 Y87.57 E1.37135
G1 X94.878 Y87.57 E.01685
G1 X125.69 Y118.382 E1.37135
G1 X125.154 Y118.382 E.01685
G1 X94.343 Y87.57 E1.37135
G1 X93.807 Y87.57 E.01685
G1 X124.619 Y118.382 E1.37135
G1 X124.084 Y118.382 E.01685
G1 X93.272 Y87.57 E1.37135
G1 X92.737 Y87.57 E.01685
G1 X123.549 Y118.382 E1.37135
G1 X123.013 Y118.382 E.01685
G1 X92.202 Y87.57 E1.37134
G1 X91.666 Y87.57 E.01685
G1 X122.478 Y118.382 E1.37134
G1 X121.943 Y118.382 E.01685
G1 X91.131 Y87.57 E1.37134
G1 X90.596 Y87.57 E.01685
M73 P4 R114
G1 X121.408 Y118.382 E1.37134
G1 X120.872 Y118.382 E.01685
G1 X90.061 Y87.57 E1.37134
G1 X89.525 Y87.57 E.01685
M73 Q4 S116
G1 X120.337 Y118.382 E1.37134
G1 X119.802 Y118.382 E.01685
G1 X88.99 Y87.57 E1.37134
G1 X88.455 Y87.57 E.01685
G1 X119.267 Y118.382 E1.37134
G1 X118.731 Y118.382 E.01685
G1 X87.92 Y87.57 E1.37134
G1 X87.384 Y87.57 E.01685
G1 X118.196 Y118.382 E1.37134
G1 X117.661 Y118.382 E.01685
G1 X86.849 Y87.57 E1.37134
G1 X86.314 Y87.57 E.01685
G1 X117.125 Y118.382 E1.37134
G1 X116.59 Y118.382 E.01685
G1 X85.779 Y87.57 E1.37134
G1 X85.243 Y87.57 E.01685
G1 X116.055 Y118.382 E1.37134
G1 X115.52 Y118.382 E.01685
G1 X85.112 Y87.974 E1.35336
G1 X85.112 Y88.509 E.01685
M73 Q4 S115
G1 X114.984 Y118.382 E1.32953
G1 X114.449 Y118.382 E.01685
G1 X85.112 Y89.045 E1.3057
G1 X85.112 Y89.58 E.01685
G1 X113.914 Y118.382 E1.28188
G1 X113.379 Y118.382 E.01685
M73 P4 R113
G1 X85.113 Y90.115 E1.25805
G1 X85.113 Y90.651 E.01685
G1 X112.843 Y118.381 E1.23422
G1 X112.308 Y118.381 E.01685
G1 X85.113 Y91.186 E1.21039
G1 X85.113 Y91.722 E.01685
G1 X111.773 Y118.381 E1.18656
G1 X111.238 Y118.381 E.01685
G1 X85.113 Y92.257 E1.16273
G1 X85.113 Y92.792 E.01685
G1 X110.702 Y118.381 E1.1389
G1 X110.167 Y118.381 E.01685
G1 X85.113 Y93.328 E1.11508
G1 X85.113 Y93.863 E.01685
G1 X109.632 Y118.381 E1.09125
G1 X109.096 Y118.381 E.01685
G1 X85.113 Y94.398 E1.06742
G1 X85.114 Y94.934 E.01685
G1 X108.561 Y118.381 E1.04359
G1 X108.026 Y118.381 E.01685
G1 X85.114 Y95.469 E1.01976
G1 X85.114 Y96.005 E.01685
G1 X107.491 Y118.381 E.99593
G1 X106.955 Y118.381 E.01685
G1 X85.114 Y96.54 E.97211
G1 X85.114 Y97.075 E.01685
G1 X106.42 Y118.381 E.94828
G1 X105.885 Y118.381 E.01685
G1 X85.114 Y97.611 E.92445
G1 X85.114 Y98.146 E.01685
G1 X105.35 Y118.381 E.90062
G1 X104.814 Y118.381 E.01685
G1 X85.114 Y98.681 E.87679
G1 X85.114 Y99.217 E.01685
G1 X104.279 Y118.381 E.85296
G1 X103.744 Y118.381 E.01685
G1 X85.115 Y99.752 E.82913
G1 X85.115 Y100.288 E.01685
G1 X103.209 Y118.381 E.80531
