; generated by PrusaSlicer 2.5.0+win64 on 2023-03-13 at 15:41:41 UTC


;
;
; 

; external perimeters extrusion width = 0.45mm
; perimeters extrusion width = 0.45mm
; infill extrusion width = 0.45mm
; solid infill extrusion width = 0.45mm
; top infill extrusion width = 0.40mm
; first layer extrusion width = 0.42mm

; external perimeters extrusion width = 0.45mm
; perimeters extrusion width = 0.45mm
; infill extrusion width = 0.45mm
; solid infill extrusion width = 0.45mm
; top infill extrusion width = 0.40mm
; first layer extrusion width = 0.42mm

M73 P0 R25
M73 Q0 S25
M201 X1000 Y1000 Z200 E5000 ; sets maximum accelerations, mm/sec^2
M203 X200 Y200 Z12 E120 ; sets maximum feedrates, mm / sec
M204 P1250 R1250 T1250 ; sets acceleration (P, T) and retract acceleration (R), mm/sec^2
M205 X8.00 Y8.00 Z0.40 E4.50 ; sets the jerk limits, mm/sec
M205 S0 T0 ; sets the minimum extruding and travel feed rate, mm/sec
M107
;TYPE:Custom
M862.3 P "MK3S" ; printer model check
M862.1 P0.4 ; nozzle diameter check
M115 U3.11.0 ; tell printer latest fw version
G90 ; use absolute coordinates
M83 ; extruder relative mode
M104 S215 ; set extruder temp
M140 S60 ; set bed temp
M190 S60 ; wait for bed temp
M109 S215 ; wait for extruder temp
G28 W ; home all without mesh bed level
G80 ; mesh bed leveling

G1 Z0.2 F720
G1 Y-3 F1000 ; go outside print area
G92 E0
G1 X60 E9 F1000 ; intro line
G1 X100 E12.5 F1000 ; intro line

G92 E0
M221 S95

; Don't change E values below. Excessive value can damage the printer.
M907 E430 ; set extruder motor current
G21 ; set units to millimeters
G90 ; use absolute coordinates
M83 ; use relative distances for extrusion
M900 K0.05 ; Filament gcode LA 1.5
M900 K30 ; Filament gcode LA 1.0
M107
;LAYER_CHANGE
;Z:0.2
;HEIGHT:0.2
;BEFORE_LAYER_CHANGE
G92 E0.0
;0.2


G1 E-.8 F2100
G1 Z.4 F720
;AFTER_LAYER_CHANGE
;0.2
G1 X80.705 Y83.725 F10800
G1 Z.2 F720
G1 E.8 F2100
M204 S800
;TYPE:Skirt/Brim
;WIDTH:0.42
G1 F1200
G1 X81.751 Y82.849 E.04278
G1 X82.691 Y82.655 E.03008
G1 X108.711 Y82.655 E.81585
G1 X146.686 Y82.98 E1.19071
G1 X147.989 Y83.382 E.04278
G1 X148.857 Y84.435 E.04278
G1 X149.042 Y85.357 E.02946
G1 X149.042 Y121.357 E1.12875
G1 X148.651 Y122.664 E.04278
G1 X147.605 Y123.54 E.04278
G1 X146.665 Y123.734 E.03008
G1 X120.645 Y123.734 E.81585
G1 X82.67 Y123.409 E1.19071
G1 X81.367 Y123.007 E.04278
M73 P1 R25
M73 Q1 S25
G1 X80.499 Y121.953 E.04278
G1 X80.313 Y121.032 E.02946
G1 X80.313 Y85.032 E1.12875
G1 X80.688 Y83.783 E.0409
M204 S1000
; printing object windowthick.stl id:0 copy 0
;WIPE_START
M73 P1 R24
G1 F8640
G1 X81.751 Y82.849 E-.32671
G1 X82.691 Y82.655 E-.22155
G1 X83.608 Y82.655 E-.21174
;WIPE_END
G1 E-.04 F2100
G1 Z.6 F720
G1 X107.903 Y120.245 F10800
G1 Z.2 F720
G1 E.8 F2100
M204 S800
;TYPE:Perimeter
;WIDTH:0.419999
G1 F1200
G1 X83.478 Y120.245 E.76585
G1 X83.478 Y85.819 E1.0794
G1 X107.903 Y85.819 E.76585
G1 X107.903 Y120.185 E1.07752
M204 S1000
G1 X108.281 Y120.622 F10800
M204 S800
;TYPE:External perimeter
G1 F1200
G1 X83.101 Y120.622 E.7895
G1 X83.101 Y85.442 E1.10304
M73 Q1 S24
G1 X108.281 Y85.442 E.7895
G1 X108.281 Y120.562 E1.10116
M204 S1000
G1 X107.9 Y120.498 F10800
;WIPE_START
M73 P2 R24
M73 Q2 S24
G1 F8640
G1 X104.989 Y120.57 E-.76
;WIPE_END
G1 E-.04 F2100
G1 Z.6 F720
G1 X107.023 Y85.933 F10800
G1 Z.2 F720
G1 E.8 F2100
M204 S800
;TYPE:Solid infill
;WIDTH:0.422257
G1 F1200
G1 X107.621 Y86.53 E.02665
G1 X107.621 Y87.066 E.01692
G1 X106.656 Y86.102 E.04301
G1 X106.12 Y86.102 E.01692
G1 X107.621 Y87.603 E.06694
G1 X107.621 Y88.139 E.01692
G1 X105.584 Y86.102 E.09087
G1 X105.047 Y86.102 E.01692
G1 X107.621 Y88.676 E.1148
G1 X107.621 Y89.212 E.01692
G1 X104.511 Y86.102 E.13873
G1 X103.974 Y86.102 E.01692
G1 X107.621 Y89.749 E.16266
G1 X107.621 Y90.285 E.01692
G1 X103.438 Y86.102 E.18659
G1 X102.901 Y86.102 E.01692
G1 X107.621 Y90.822 E.21052
G1 X107.621 Y91.358 E.01692
G1 X102.365 Y86.102 E.23445
G1 X101.828 Y86.102 E.01692
G1 X107.621 Y91.895 E.25838
G1 X107.621 Y92.431 E.01692
G1 X101.292 Y86.102 E.28231
G1 X100.755 Y86.102 E.01692
G1 X107.621 Y92.968 E.30624
G1 X107.621 Y93.504 E.01692
G1 X100.219 Y86.102 E.33017
G1 X99.682 Y86.102 E.01692
G1 X107.621 Y94.04 E.3541
G1 X107.621 Y94.577 E.01692
G1 X99.146 Y86.102 E.37803
G1 X98.61 Y86.102 E.01692
G1 X107.621 Y95.113 E.40196
G1 X107.621 Y95.65 E.01692
G1 X98.073 Y86.102 E.42589
G1 X97.537 Y86.102 E.01692
G1 X107.621 Y96.186 E.44982
G1 X107.621 Y96.723 E.01692
G1 X97 Y86.102 E.47375
G1 X96.464 Y86.102 E.01692
G1 X107.621 Y97.259 E.49768
G1 X107.621 Y97.796 E.01692
G1 X95.927 Y86.102 E.52161
G1 X95.391 Y86.102 E.01692
G1 X107.621 Y98.332 E.54554
G1 X107.621 Y98.869 E.01692
G1 X94.854 Y86.102 E.56947
G1 X94.318 Y86.102 E.01692
G1 X107.621 Y99.405 E.5934
G1 X107.621 Y99.942 E.01692
G1 X93.781 Y86.102 E.61733
G1 X93.245 Y86.102 E.01692
M73 Q3 S24
G1 X107.621 Y100.478 E.64126
G1 X107.621 Y101.014 E.01692
M73 P3 R24
G1 X92.708 Y86.102 E.66519
G1 X92.172 Y86.102 E.01692
G1 X107.621 Y101.551 E.68912
G1 X107.621 Y102.087 E.01692
G1 X91.636 Y86.102 E.71305
G1 X91.099 Y86.102 E.01692
G1 X107.621 Y102.624 E.73698
G1 X107.621 Y103.16 E.01692
G1 X90.563 Y86.102 E.76091
G1 X90.026 Y86.102 E.01692
G1 X107.621 Y103.697 E.78484
G1 X107.621 Y104.233 E.01692
G1 X89.49 Y86.102 E.80877
G1 X88.953 Y86.102 E.01692
G1 X107.621 Y104.77 E.8327
G1 X107.621 Y105.306 E.01692
G1 X88.417 Y86.102 E.85663
G1 X87.88 Y86.102 E.01692
G1 X107.621 Y105.843 E.88056
G1 X107.621 Y106.379 E.01692
G1 X87.344 Y86.102 E.90449
G1 X86.807 Y86.102 E.01692
M73 Q4 S24
G1 X107.621 Y106.916 E.92842
G1 X107.621 Y107.452 E.01692
M73 P4 R24
G1 X86.271 Y86.102 E.95235
G1 X85.734 Y86.102 E.01692
G1 X107.621 Y107.988 E.97628
G1 X107.621 Y108.525 E.01692
G1 X85.198 Y86.102 E1.00021
G1 X84.661 Y86.102 E.01692
G1 X107.621 Y109.061 E1.02414
G1 X107.621 Y109.598 E.01692
G1 X84.125 Y86.102 E1.04807
G1 X83.76 Y86.102 E.0115
G1 X83.76 Y86.274 E.00542
G1 X107.621 Y110.134 E1.06434
G1 X107.621 Y110.671 E.01692
G1 X83.76 Y86.811 E1.06434
G1 X83.76 Y87.347 E.01692
G1 X107.621 Y111.207 E1.06434
G1 X107.621 Y111.744 E.01692
G1 X83.76 Y87.883 E1.06434
G1 X83.76 Y88.42 E.01692
M73 P5 R23
M73 Q5 S24
G1 X107.621 Y112.28 E1.06434
G1 X107.621 Y112.817 E.01692
G1 X83.76 Y88.956 E1.06434
G1 X83.76 Y89.493 E.01692
G1 X107.621 Y113.353 E1.06434
G1 X107.621 Y113.89 E.01692
G1 X83.76 Y90.029 E1.06434
G1 X83.76 Y90.566 E.01692
G1 X107.621 Y114.426 E1.06434
G1 X107.621 Y114.963 E.01692
M73 Q5 S23
G1 X83.76 Y91.102 E1.06434
G1 X83.76 Y91.639 E.01692
G1 X107.621 Y115.499 E1.06434
G1 X107.621 Y116.035 E.01692
G1 X83.76 Y92.175 E1.06434
G1 X83.76 Y92.712 E.01692
M73 P6 R23
G1 X107.621 Y116.572 E1.06434
G1 X107.621 Y117.108 E.01692
M73 Q6 S23
G1 X83.76 Y93.248 E1.06434
G1 X83.76 Y93.785 E.01692
G1 X107.621 Y117.645 E1.06434
G1 X107.621 Y118.181 E.01692
G1 X83.76 Y94.321 E1.06434
G1 X83.76 Y94.858 E.01692
G1 X107.621 Y118.718 E1.06434
G1 X107.621 Y119.254 E.01692
G1 X83.76 Y95.394 E1.06434
G1 X83.76 Y95.93 E.01692
G1 X107.621 Y119.791 E1.06434
G1 X107.621 Y119.963 E.00542
G1 X107.256 Y119.963 E.0115
G1 X83.76 Y96.467 E1.04807
G1 X83.76 Y97.003 E.01692
G1 X106.72 Y119.963 E1.02414
G1 X106.183 Y119.963 E.01692
M73 P7 R23
M73 Q7 S23
G1 X83.76 Y97.54 E1.00021
G1 X83.76 Y98.076 E.01692
G1 X105.647 Y119.963 E.97628
G1 X105.11 Y119.963 E.01692
G1 X83.76 Y98.613 E.95235
G1 X83.76 Y99.149 E.01692
G1 X104.574 Y119.963 E.92842
G1 X104.037 Y119.963 E.01692
G1 X83.76 Y99.686 E.90449
G1 X83.76 Y100.222 E.01692
G1 X103.501 Y119.963 E.88056
G1 X102.964 Y119.963 E.01692
G1 X83.76 Y100.759 E.85663
G1 X83.76 Y101.295 E.01692
G1 X102.428 Y119.963 E.8327
G1 X101.891 Y119.963 E.01692
G1 X83.76 Y101.832 E.80877
G1 X83.76 Y102.368 E.01692
G1 X101.355 Y119.963 E.78484
G1 X100.818 Y119.963 E.01692
G1 X83.76 Y102.904 E.76091
G1 X83.76 Y103.441 E.01692
M73 P8 R23
M73 Q8 S23
G1 X100.282 Y119.963 E.73698
G1 X99.746 Y119.963 E.01692
G1 X83.76 Y103.977 E.71305
G1 X83.76 Y104.514 E.01692
G1 X99.209 Y119.963 E.68912
G1 X98.673 Y119.963 E.01692
G1 X83.76 Y105.05 E.66519
G1 X83.76 Y105.587 E.01692
G1 X98.136 Y119.963 E.64126
G1 X97.6 Y119.963 E.01692
G1 X83.76 Y106.123 E.61733
G1 X83.76 Y106.66 E.01692
G1 X97.063 Y119.963 E.5934
G1 X96.527 Y119.963 E.01692
G1 X83.76 Y107.196 E.56947
G1 X83.76 Y107.733 E.01692
G1 X95.99 Y119.963 E.54554
G1 X95.454 Y119.963 E.01692
G1 X83.76 Y108.269 E.52161
G1 X83.76 Y108.806 E.01692
G1 X94.917 Y119.963 E.49768
G1 X94.381 Y119.963 E.01692
G1 X83.76 Y109.342 E.47375
G1 X83.76 Y109.878 E.01692
G1 X93.844 Y119.963 E.44982
G1 X93.308 Y119.963 E.01692
G1 X83.76 Y110.415 E.42589
G1 X83.76 Y110.951 E.01692
G1 X92.771 Y119.963 E.40196
G1 X92.235 Y119.963 E.01692
G1 X83.76 Y111.488 E.37803
G1 X83.76 Y112.024 E.01692
M73 P9 R22
M73 Q9 S23
G1 X91.699 Y119.963 E.3541
G1 X91.162 Y119.963 E.01692
G1 X83.76 Y112.561 E.33017
G1 X83.76 Y113.097 E.01692
G1 X90.626 Y119.963 E.30624
G1 X90.089 Y119.963 E.01692
G1 X83.76 Y113.634 E.28231
G1 X83.76 Y114.17 E.01692
G1 X89.553 Y119.963 E.25838
G1 X89.016 Y119.963 E.01692
G1 X83.76 Y114.707 E.23445
G1 X83.76 Y115.243 E.01692
G1 X88.48 Y119.963 E.21052
G1 X87.943 Y119.963 E.01692
G1 X83.76 Y115.78 E.18659
G1 X83.76 Y116.316 E.01692
G1 X87.407 Y119.963 E.16266
G1 X86.87 Y119.963 E.01692
G1 X83.76 Y116.853 E.13873
G1 X83.76 Y117.389 E.01692
G1 X86.334 Y119.963 E.1148
G1 X85.797 Y119.963 E.01692
G1 X83.76 Y117.925 E.09087
G1 X83.76 Y118.462 E.01692
G1 X85.261 Y119.963 E.06694
G1 X84.725 Y119.963 E.01692
G1 X83.76 Y118.998 E.04301
G1 X83.76 Y119.535 E.01692
G1 X84.358 Y120.132 E.02665
M204 S1000
; stop printing object windowthick.stl id:0 copy 0
; printing object windowthick.stl id:1 copy 0
;WIPE_START
G1 F8640
G1 X83.76 Y119.535 E-.19507
G1 X83.76 Y118.998 E-.12387
G1 X84.725 Y119.963 E-.31484
G1 X85.261 Y119.963 E-.12387
G1 X85.254 Y119.955 E-.00236
;WIPE_END
G1 E-.04 F2100
G1 Z.6 F720
G1 X145.878 Y120.569 F10800
G1 Z.2 F720
G1 E.8 F2100
M204 S800
;TYPE:Perimeter
;WIDTH:0.419999
G1 F1200
G1 X121.452 Y120.569 E.76585
G1 X121.452 Y86.144 E1.0794
G1 X145.878 Y86.144 E.76585
M73 Q9 S22
G1 X145.878 Y120.509 E1.07752
M204 S1000
G1 X146.255 Y120.947 F10800
M204 S800
;TYPE:External perimeter
G1 F1200
G1 X121.075 Y120.947 E.7895
G1 X121.075 Y85.767 E1.10304
G1 X146.255 Y85.767 E.7895
M73 P10 R22
M73 Q10 S22
G1 X146.255 Y120.887 E1.10116
M204 S1000
G1 X145.875 Y120.822 F10800
;WIPE_START
G1 F8640
G1 X142.964 Y120.894 E-.76
;WIPE_END
G1 E-.04 F2100
G1 Z.6 F720
G1 X144.998 Y86.257 F10800
G1 Z.2 F720
G1 E.8 F2100
M204 S800
;TYPE:Solid infill
;WIDTH:0.422257
G1 F1200
G1 X145.595 Y86.854 E.02665
G1 X145.595 Y87.391 E.01692
G1 X144.631 Y86.426 E.04301
G1 X144.095 Y86.426 E.01692
G1 X145.595 Y87.927 E.06694
G1 X145.595 Y88.464 E.01692
G1 X143.558 Y86.426 E.09087
G1 X143.022 Y86.426 E.01692
G1 X145.595 Y89 E.1148
G1 X145.595 Y89.536 E.01692
G1 X142.485 Y86.426 E.13873
G1 X141.949 Y86.426 E.01692
G1 X145.595 Y90.073 E.16266
G1 X145.595 Y90.609 E.01692
G1 X141.412 Y86.426 E.18659
G1 X140.876 Y86.426 E.01692
G1 X145.595 Y91.146 E.21052
G1 X145.595 Y91.682 E.01692
G1 X140.339 Y86.426 E.23445
G1 X139.803 Y86.426 E.01692
G1 X145.595 Y92.219 E.25838
G1 X145.595 Y92.755 E.01692
G1 X139.267 Y86.426 E.28231
G1 X138.73 Y86.426 E.01692
G1 X145.595 Y93.292 E.30624
G1 X145.595 Y93.828 E.01692
G1 X138.194 Y86.426 E.33017
G1 X137.657 Y86.426 E.01692
G1 X145.595 Y94.365 E.3541
G1 X145.595 Y94.901 E.01692
G1 X137.121 Y86.426 E.37803
G1 X136.584 Y86.426 E.01692
G1 X145.595 Y95.438 E.40196
G1 X145.595 Y95.974 E.01692
G1 X136.048 Y86.426 E.42589
G1 X135.511 Y86.426 E.01692
G1 X145.595 Y96.51 E.44982
G1 X145.595 Y97.047 E.01692
G1 X134.975 Y86.426 E.47375
G1 X134.438 Y86.426 E.01692
G1 X145.595 Y97.583 E.49768
G1 X145.595 Y98.12 E.01692
G1 X133.902 Y86.426 E.52161
G1 X133.365 Y86.426 E.01692
G1 X145.595 Y98.656 E.54554
G1 X145.595 Y99.193 E.01692
M73 P11 R22
G1 X132.829 Y86.426 E.56947
G1 X132.293 Y86.426 E.01692
M73 Q11 S22
G1 X145.595 Y99.729 E.5934
G1 X145.595 Y100.266 E.01692
G1 X131.756 Y86.426 E.61733
G1 X131.22 Y86.426 E.01692
G1 X145.595 Y100.802 E.64126
G1 X145.595 Y101.339 E.01692
G1 X130.683 Y86.426 E.66519
G1 X130.147 Y86.426 E.01692
G1 X145.595 Y101.875 E.68912
G1 X145.595 Y102.412 E.01692
G1 X129.61 Y86.426 E.71305
G1 X129.074 Y86.426 E.01692
G1 X145.595 Y102.948 E.73698
G1 X145.595 Y103.484 E.01692
G1 X128.537 Y86.426 E.76091
G1 X128.001 Y86.426 E.01692
G1 X145.595 Y104.021 E.78484
G1 X145.595 Y104.557 E.01692
G1 X127.464 Y86.426 E.80877
G1 X126.928 Y86.426 E.01692
G1 X145.595 Y105.094 E.8327
G1 X145.595 Y105.63 E.01692
G1 X126.391 Y86.426 E.85663
G1 X125.855 Y86.426 E.01692
M73 P12 R22
G1 X145.595 Y106.167 E.88056
G1 X145.595 Y106.703 E.01692
M73 Q12 S22
G1 X125.319 Y86.426 E.90449
G1 X124.782 Y86.426 E.01692
G1 X145.595 Y107.24 E.92842
G1 X145.595 Y107.776 E.01692
G1 X124.246 Y86.426 E.95235
G1 X123.709 Y86.426 E.01692
G1 X145.595 Y108.313 E.97628
G1 X145.595 Y108.849 E.01692
G1 X123.173 Y86.426 E1.00021
G1 X122.636 Y86.426 E.01692
G1 X145.595 Y109.386 E1.02414
G1 X145.595 Y109.922 E.01692
G1 X122.1 Y86.426 E1.04807
G1 X121.735 Y86.426 E.0115
G1 X121.735 Y86.598 E.00542
G1 X145.595 Y110.459 E1.06434
G1 X145.595 Y110.995 E.01692
G1 X121.735 Y87.135 E1.06434
G1 X121.735 Y87.671 E.01692
M73 P13 R21
M73 Q13 S22
G1 X145.595 Y111.531 E1.06434
G1 X145.595 Y112.068 E.01692
G1 X121.735 Y88.208 E1.06434
G1 X121.735 Y88.744 E.01692
G1 X145.595 Y112.604 E1.06434
G1 X145.595 Y113.141 E.01692
G1 X121.735 Y89.281 E1.06434
G1 X121.735 Y89.817 E.01692
M73 Q13 S21
G1 X145.595 Y113.677 E1.06434
G1 X145.595 Y114.214 E.01692
G1 X121.735 Y90.354 E1.06434
G1 X121.735 Y90.89 E.01692
G1 X145.595 Y114.75 E1.06434
G1 X145.595 Y115.287 E.01692
G1 X121.735 Y91.426 E1.06434
G1 X121.735 Y91.963 E.01692
G1 X145.595 Y115.823 E1.06434
G1 X145.595 Y116.36 E.01692
M73 P14 R21
M73 Q14 S21
G1 X121.735 Y92.499 E1.06434
G1 X121.735 Y93.036 E.01692
G1 X145.595 Y116.896 E1.06434
G1 X145.595 Y117.433 E.01692
G1 X121.735 Y93.572 E1.06434
G1 X121.735 Y94.109 E.01692
G1 X145.595 Y117.969 E1.06434
G1 X145.595 Y118.505 E.01692
G1 X121.735 Y94.645 E1.06434
G1 X121.735 Y95.182 E.01692
G1 X145.595 Y119.042 E1.06434
G1 X145.595 Y119.578 E.01692
G1 X121.735 Y95.718 E1.06434
G1 X121.735 Y96.255 E.01692
G1 X145.595 Y120.115 E1.06434
G1 X145.595 Y120.287 E.00542
M73 P15 R21
G1 X145.231 Y120.287 E.0115
G1 X121.735 Y96.791 E1.04807
G1 X121.735 Y97.328 E.01692
M73 Q15 S21
G1 X144.694 Y120.287 E1.02414
G1 X144.158 Y120.287 E.01692
G1 X121.735 Y97.864 E1.00021
G1 X121.735 Y98.4 E.01692
G1 X143.621 Y120.287 E.97628
G1 X143.085 Y120.287 E.01692
G1 X121.735 Y98.937 E.95235
G1 X121.735 Y99.473 E.01692
G1 X142.548 Y120.287 E.92842
G1 X142.012 Y120.287 E.01692
G1 X121.735 Y100.01 E.90449
G1 X121.735 Y100.546 E.01692
G1 X141.475 Y120.287 E.88056
G1 X140.939 Y120.287 E.01692
G1 X121.735 Y101.083 E.85663
G1 X121.735 Y101.619 E.01692
G1 X140.403 Y120.287 E.8327
G1 X139.866 Y120.287 E.01692
M73 P16 R21
G1 X121.735 Y102.156 E.80877
G1 X121.735 Y102.692 E.01692
M73 Q16 S21
G1 X139.33 Y120.287 E.78484
G1 X138.793 Y120.287 E.01692
G1 X121.735 Y103.229 E.76091
G1 X121.735 Y103.765 E.01692
G1 X138.257 Y120.287 E.73698
G1 X137.72 Y120.287 E.01692
G1 X121.735 Y104.302 E.71305
G1 X121.735 Y104.838 E.01692
G1 X137.184 Y120.287 E.68912
G1 X136.647 Y120.287 E.01692
G1 X121.735 Y105.374 E.66519
G1 X121.735 Y105.911 E.01692
G1 X136.111 Y120.287 E.64126
G1 X135.574 Y120.287 E.01692
G1 X121.735 Y106.447 E.61733
G1 X121.735 Y106.984 E.01692
G1 X135.038 Y120.287 E.5934
G1 X134.501 Y120.287 E.01692
G1 X121.735 Y107.52 E.56947
G1 X121.735 Y108.057 E.01692
G1 X133.965 Y120.287 E.54554
G1 X133.429 Y120.287 E.01692
G1 X121.735 Y108.593 E.52161
G1 X121.735 Y109.13 E.01692
M73 P16 R20
G1 X132.892 Y120.287 E.49768
G1 X132.356 Y120.287 E.01692
M73 P17 R20
G1 X121.735 Y109.666 E.47375
G1 X121.735 Y110.203 E.01692
M73 Q17 S21
G1 X131.819 Y120.287 E.44982
G1 X131.283 Y120.287 E.01692
G1 X121.735 Y110.739 E.42589
G1 X121.735 Y111.276 E.01692
G1 X130.746 Y120.287 E.40196
G1 X130.21 Y120.287 E.01692
G1 X121.735 Y111.812 E.37803
G1 X121.735 Y112.349 E.01692
G1 X129.673 Y120.287 E.3541
G1 X129.137 Y120.287 E.01692
